X: 30787
T: Ostinelli's
R: reel
M: 4/4
K: Amajor
cd|:eAfA eAaA|c'AaA eAfA|eagf edcd|edcd Bcd^d|
eAfA eAaA|c'AaA eAfA|eagf edcB|1 Aaec ABcd:|2 Aaec {AB}A2||
|:{EF}ED|CAEc Aeca|ee'c'a ec'ae|caec AecA|dcBA GFED|
CAEc Aeca|ee'c'a ec'ae|caec B^dgf|((3efe) ((3dcB) {AB}A2:|

